X:48
T:Quince Dillon's High D
S:Pete Budd, Edinburgh  
N:Probably mutated by excessive playing
Z:Nigel Gatherer
M:4/4
O:USA
L:1/8
K:D
(3A,B,C|D2 D2 F2 A2|dcde dc B2|A2 A2 c2 (3ef^g|a2 a2 d'3 z|
D2 D2 F2 A2|dcde dc B2|ABAG FD E2|D6 (3A,B,C|
(3A,B,C|D2 D2 F2 A2|dcde dc B2|A2 A2 c2 (3ef^g|a2 a2 d'3 z|
D2 D2 F2 A2|dcde dc B2|ABAG FD E2|D4||abag|
f d2 d d2 A2|defg a2 gf|e =c2 c c2 A2|=cdef g2 ag|
f d2 d d2 A2|defg a2 A2-|ABcd egfe|d4 abag|
f d2 d d2 A2|defg a2 gf|e =c2 c c2 A2|=cdef g2 ag|
f d2 d d2 A2|defg a2 A2-|ABcd egfe|d6 |]

